X: 11502
Q: "Strathspey."
M: C
L: 1/16
K: G
g2 |\
c3AB3G A3GA2a2 | eg3d3B G4G2 :|
|: g2 |\
eg3d3g c3BA2a2 | eg3d3B d3eg3a |\
bagf gedB c3BA2a2 | eg3d3B G4G2 :|


